X:41
T:Hornpipes 1 - Apostle’s Abode
T:Modal Hornpipe
M:4/4
L:1/8
K:Em
B,2 | "Em"EFGE "D"FGAF | "G"B2B2 "D"AFDF | "C"G2EG "Bm"F2DF | "C"EFGE "D"AFD2 |
"Em"EFGE "D"FGAF | "G"B2B2 "D"AFDF | "C"G2EF GFED | "Bm"B,2 "Em"E2E2 :|
d2 | "Em"edBd edBd | e^def egfe | "D"dAFG dA(3FGA | "G"BcdB "D"AFD2 |
"C"EFGE "Bm"FGAF | "C"B2B2 "Bm"AFD2 | "C"G2EF "Am"GFED | "Bm"B,2 "Em"E2E2 :|
T: Apostle's Abode
M:4/4
R:
K:G
DD | "Em"E2 GE "D"F2 AF | "G"G2 BG "Am"AB"G/B"dB | "C"ef "Am"(3gfe "G"dBGB | "Am"ABcA "B"B3 E- |
"C"E2 GE "D"F2 AF | "G"G2 BG "Am"AB"G/B"dB | "C"ef "Am"(3gfe "G"dBGB | "C"AB"D"AG "Em"E2 :|
dd | "C"ef "Am"(3gfe "G"dBGB | "Am"ABcA "Bm"BBdB | "C"ef "Am"(3gfe "G"dBGB | "C"AB"D"AG "Em"E3 de- |
"C"ef "Am"(3gfe "G"dBGB | "Am"ABcA "Bm"BBdB | "C"ef "Am"(3gfe "G"dBGB | "C"AB"D"AG "Em"E3 :|
%%newpage

